X:431
T: ES KANN JA NICHT IMMER SO BLEIBEN
N: E0353D
O: Europa, Mitteleuropa, Deutschland, Hessen, Darmstadt
R: historisches Lied, Krieg, Soldaten (1813 und 1870)
M: 4/4
L: 1/8
K: F
FG | A2AAAcBA | cGG2z2
GA | B2BBd2cB | c4z2
F2 | d2ddf2ed | dcc2z2
cf | e2eee2de | f4z2
F2 | d2ddf2ed | dcc2z2
cf | e2eee2de | f4z2

